svg/blobs-icons/no-decorations/support-lifebuoy.svg

<svg xmlns="http://www.w3.org/2000/svg" xmlns:xlink="http://www.w3.org/1999/xlink" preserveAspectRatio="xMidYMid" width="217" height="218" viewBox="0 0 217 218"><defs><style>.cls-3{fill:#ededed}.cls-4{fill:#020403;opacity:.35}.cls-7{fill:#ff3a2f}</style></defs><g id="group-29svg"><path d="M106.384 7.469C50.51 7.469 5.215 52.765 5.215 108.641S50.51 209.813 106.384 209.813c55.875.0 101.17-45.296 101.17-101.172.0-55.876-45.295-101.172-101.17-101.172zm0 156.479c-30.545.0-55.306-24.762-55.306-55.307s24.761-55.307 55.306-55.307c30.546.0 55.307 24.762 55.307 55.307s-24.761 55.307-55.307 55.307z" id="path-1" class="cls-3" fill-rule="evenodd"/><path d="M200.423 71.497S150.385 75.231 150.385 75.231C155.098 81.428 158.543 88.628 160.307 96.482L206.232 93.055C205.071 85.567 203.132 78.348 200.423 71.497z" id="path-2" class="cls-4" fill-rule="evenodd"/><path d="M121.966 55.598C130.733 58.17 138.59 62.842 144.961 69.051L140.825 13.611C133.69 11.023 126.213 9.177 118.434 8.251l3.532 47.347z" id="path-3" class="cls-4" fill-rule="evenodd"/><path d="M139.691 152.72C133.706 157.25 126.785 160.584 119.252 162.382L128.186 207.394C135.505 205.786 142.493 203.344 149.125 200.243l-9.434-47.523z" id="path-4" class="cls-4" fill-rule="evenodd"/><path d="M116.127 63.101s-15.38.0-15.38.0c-6.25.0-11.528-4.643-12.324-10.843L83.517 14.01C82.565 6.582 88.351.004 95.841.004h25.191c7.491.0 13.277 6.578 12.324 14.006L128.45 52.258C127.656 58.458 122.377 63.101 116.127 63.101z" id="path-5" class="cls-7" fill-rule="evenodd"/><path d="M100.747 153.786s15.38.0 15.38.0C122.377 153.786 127.656 158.43 128.45 164.63L133.356 202.877C134.309 210.306 128.523 216.884 121.032 216.884H95.841C88.351 216.884 82.565 210.306 83.517 202.877L88.423 164.63C89.219 158.43 94.497 153.786 100.747 153.786z" id="path-6" class="cls-7" fill-rule="evenodd"/><path d="M153.778 116.135s0-15.381.0-15.381C153.778 94.503 158.421 89.225 164.622 88.43L202.869 83.524C210.297 82.571 216.874 88.358 216.874 95.847V121.04c0 7.49-6.577 13.277-14.005 12.324L164.622 128.458C158.421 127.663 153.778 122.384 153.778 116.135z" id="path-7" class="cls-7" fill-rule="evenodd"/><path d="M63.096 100.754s0 15.381.0 15.381c0 6.249-4.644 11.528-10.844 12.323L14.006 133.364C6.577 134.317.0 128.53.0 121.04V95.847C0 88.358 6.577 82.571 14.006 83.524L52.252 88.43C58.452 89.225 63.096 94.503 63.096 100.754z" id="path-8" class="cls-7" fill-rule="evenodd"/></g></svg>

<svg xmlns="http://www.w3.org/2000/svg" xmlns:xlink="http://www.w3.org/1999/xlink" preserveAspectRatio="xMidYMid" width="217" height="218" viewBox="0 0 217 218">
  <defs>
    <style>

      .cls-3 {
        fill: #ededed;
      }

      .cls-4 {
        fill: #020403;
        opacity: 0.35;
      }

      .cls-7 {
        fill: #ff3a2f;
      }
    </style>
  </defs>
  <g id="group-29svg">
    <path d="M106.384,7.469 C50.510,7.469 5.215,52.765 5.215,108.641 C5.215,164.517 50.510,209.813 106.384,209.813 C162.259,209.813 207.554,164.517 207.554,108.641 C207.554,52.765 162.259,7.469 106.384,7.469 ZM106.384,163.948 C75.839,163.948 51.078,139.186 51.078,108.641 C51.078,78.096 75.839,53.334 106.384,53.334 C136.930,53.334 161.691,78.096 161.691,108.641 C161.691,139.186 136.930,163.948 106.384,163.948 Z" id="path-1" class="cls-3" fill-rule="evenodd"/>
    <path d="M200.423,71.497 C200.423,71.497 150.385,75.231 150.385,75.231 C155.098,81.428 158.543,88.628 160.307,96.482 C160.307,96.482 206.232,93.055 206.232,93.055 C205.071,85.567 203.132,78.348 200.423,71.497 Z" id="path-2" class="cls-4" fill-rule="evenodd"/>
    <path d="M121.966,55.598 C130.733,58.170 138.590,62.842 144.961,69.051 C144.961,69.051 140.825,13.611 140.825,13.611 C133.690,11.023 126.213,9.177 118.434,8.251 C118.434,8.251 121.966,55.598 121.966,55.598 Z" id="path-3" class="cls-4" fill-rule="evenodd"/>
    <path d="M139.691,152.720 C133.706,157.250 126.785,160.584 119.252,162.382 C119.252,162.382 128.186,207.394 128.186,207.394 C135.505,205.786 142.493,203.344 149.125,200.243 C149.125,200.243 139.691,152.720 139.691,152.720 Z" id="path-4" class="cls-4" fill-rule="evenodd"/>
    <path d="M116.127,63.101 C116.127,63.101 100.747,63.101 100.747,63.101 C94.497,63.101 89.219,58.458 88.423,52.258 C88.423,52.258 83.517,14.010 83.517,14.010 C82.565,6.582 88.351,0.004 95.841,0.004 C95.841,0.004 121.032,0.004 121.032,0.004 C128.523,0.004 134.309,6.582 133.356,14.010 C133.356,14.010 128.450,52.258 128.450,52.258 C127.656,58.458 122.377,63.101 116.127,63.101 Z" id="path-5" class="cls-7" fill-rule="evenodd"/>
    <path d="M100.747,153.786 C100.747,153.786 116.127,153.786 116.127,153.786 C122.377,153.786 127.656,158.430 128.450,164.630 C128.450,164.630 133.356,202.877 133.356,202.877 C134.309,210.306 128.523,216.884 121.032,216.884 C121.032,216.884 95.841,216.884 95.841,216.884 C88.351,216.884 82.565,210.306 83.517,202.877 C83.517,202.877 88.423,164.630 88.423,164.630 C89.219,158.430 94.497,153.786 100.747,153.786 Z" id="path-6" class="cls-7" fill-rule="evenodd"/>
    <path d="M153.778,116.135 C153.778,116.135 153.778,100.754 153.778,100.754 C153.778,94.503 158.421,89.225 164.622,88.430 C164.622,88.430 202.869,83.524 202.869,83.524 C210.297,82.571 216.874,88.358 216.874,95.847 C216.874,95.847 216.874,121.040 216.874,121.040 C216.874,128.530 210.297,134.317 202.869,133.364 C202.869,133.364 164.622,128.458 164.622,128.458 C158.421,127.663 153.778,122.384 153.778,116.135 Z" id="path-7" class="cls-7" fill-rule="evenodd"/>
    <path d="M63.096,100.754 C63.096,100.754 63.096,116.135 63.096,116.135 C63.096,122.384 58.452,127.663 52.252,128.458 C52.252,128.458 14.006,133.364 14.006,133.364 C6.577,134.317 -0.000,128.530 -0.000,121.040 C-0.000,121.040 -0.000,95.847 -0.000,95.847 C-0.000,88.358 6.577,82.571 14.006,83.524 C14.006,83.524 52.252,88.430 52.252,88.430 C58.452,89.225 63.096,94.503 63.096,100.754 Z" id="path-8" class="cls-7" fill-rule="evenodd"/>
  </g>
</svg>
